Numix-Light/16/status/indicator-keyboard-Fr-1.svg

<?xml version="1.0" encoding="UTF-8" standalone="no"?>
<svg
   xmlns:dc="http://purl.org/dc/elements/1.1/"
   xmlns:cc="http://creativecommons.org/ns#"
   xmlns:rdf="http://www.w3.org/1999/02/22-rdf-syntax-ns#"
   xmlns:svg="http://www.w3.org/2000/svg"
   xmlns="http://www.w3.org/2000/svg"
   xmlns:sodipodi="http://sodipodi.sourceforge.net/DTD/sodipodi-0.dtd"
   xmlns:inkscape="http://www.inkscape.org/namespaces/inkscape"
   viewBox="0 0 16 16"
   id="svg2"
   version="1.1"
   inkscape:version="0.91 r13725"
   sodipodi:docname="indicator-keyboard-Fr-1.svg">
  <metadata
     id="metadata14">
    <rdf:RDF>
      <cc:Work
         rdf:about="">
        <dc:format>image/svg+xml</dc:format>
        <dc:type
           rdf:resource="http://purl.org/dc/dcmitype/StillImage" />
      </cc:Work>
    </rdf:RDF>
  </metadata>
  <defs
     id="defs12" />
  <sodipodi:namedview
     pagecolor="#ffffff"
     bordercolor="#666666"
     borderopacity="1"
     objecttolerance="10"
     gridtolerance="10"
     guidetolerance="10"
     inkscape:pageopacity="0"
     inkscape:pageshadow="2"
     inkscape:window-width="640"
     inkscape:window-height="480"
     id="namedview10"
     showgrid="false"
     inkscape:zoom="14.75"
     inkscape:cx="8"
     inkscape:cy="8"
     inkscape:window-x="65"
     inkscape:window-y="24"
     inkscape:window-maximized="0"
     inkscape:current-layer="svg2" />
  <path
     style="fill:#353535;fill-opacity:1"
     d="M 1.5996094 0 C 0.71320937 2.9605947e-16 0 0.71320937 0 1.5996094 L 0 14.400391 C 2.9605947e-16 15.286791 0.71320937 16 1.5996094 16 L 14.400391 16 C 15.286791 16 16 15.286791 16 14.400391 L 16 1.5996094 C 16 0.71320937 15.286791 0 14.400391 0 L 1.5996094 0 z M 3.4355469 4.859375 L 6.9902344 4.859375 L 6.9902344 5.390625 L 4.046875 5.390625 L 4.046875 7.5859375 L 6.65625 7.5859375 L 6.65625 8.1171875 L 4.046875 8.1171875 L 4.046875 11.095703 L 3.4355469 11.095703 L 3.4355469 4.859375 z M 9.5 6.3535156 C 9.692 6.3535156 9.8730156 6.3684375 10.041016 6.3984375 C 10.215016 6.4284375 10.334391 6.4582812 10.400391 6.4882812 L 10.283203 6.9921875 C 10.235203 6.9681875 10.136328 6.9439219 9.9863281 6.9199219 C 9.8423281 6.8899219 9.6501563 6.875 9.4101562 6.875 C 9.1581562 6.875 8.9548281 6.8936875 8.7988281 6.9296875 C 8.6488281 6.9656875 8.5499531 6.9955312 8.5019531 7.0195312 L 8.5019531 11.095703 L 7.9160156 11.095703 L 7.9160156 6.6582031 C 8.0660156 6.5922031 8.2731094 6.5269375 8.5371094 6.4609375 C 8.8011094 6.3889375 9.122 6.3535156 9.5 6.3535156 z M 12.296875 8.8417969 L 12.564453 8.8417969 L 12.564453 12.896484 L 12.185547 12.896484 L 12.185547 9.421875 C 12.142647 9.468675 12.085825 9.5157063 12.015625 9.5664062 C 11.949325 9.6171062 11.872909 9.66805 11.787109 9.71875 C 11.701309 9.76555 11.611178 9.812575 11.517578 9.859375 C 11.423978 9.902275 11.329928 9.9375437 11.236328 9.9648438 L 11.125 9.671875 C 11.359 9.5899751 11.568653 9.4880812 11.751953 9.3632812 C 11.935253 9.2345813 12.117475 9.0601969 12.296875 8.8417969 z "
     id="path4" />
</svg>

<svg xmlns="http://www.w3.org/2000/svg" viewBox="0 0 16 16">
 <path d="m 1.6 0 c -0.886 0 -1.6 0.713 -1.6 1.6 l 0 12.801 c 0 0.886 0.713 1.6 1.6 1.6 l 12.801 0 c 0.886 0 1.6 -0.713 1.6 -1.6 l 0 -12.801 c 0 -0.886 -0.713 -1.6 -1.6 -1.6 l -12.801 0 z m 1.836 4.859 l 3.555 0 l 0 0.531 l -2.943 0 l 0 2.195 l 2.609 0 l 0 0.531 l -2.609 0 l 0 2.979 l -0.611 0 l 0 -6.236 z m 6.06 1.494 c 0.192 0 0.373 0.015 0.541 0.045 c 0.174 0.03 0.293 0.06 0.359 0.09 l -0.117 0.504 c -0.048 -0.024 -0.147 -0.048 -0.297 -0.072 c -0.144 -0.03 -0.336 -0.045 -0.576 -0.045 c -0.252 0 -0.455 0.019 -0.611 0.055 c -0.15 0.036 -0.249 0.066 -0.297 0.09 l 0 4.076 l -0.586 0 l 0 -4.437 c 0.15 -0.066 0.357 -0.131 0.621 -0.197 c 0.264 -0.072 0.585 -0.107 0.963 -0.107 z m 2.797 2.488 l 0.268 0 l 0 4.055 l -0.379 0 l 0 -3.475 c -0.043 0.047 -0.1 0.094 -0.17 0.145 c -0.066 0.051 -0.143 0.102 -0.229 0.152 c -0.086 0.047 -0.176 0.094 -0.27 0.141 c -0.094 0.043 -0.188 0.078 -0.281 0.105 l -0.111 -0.293 c 0.234 -0.082 0.444 -0.184 0.627 -0.309 c 0.183 -0.129 0.366 -0.303 0.545 -0.521 z" style="fill:#353535;fill-opacity:1"/>
</svg>
